icons/svg/rss.svg

<svg xmlns="http://www.w3.org/2000/svg" version="1.1" baseProfile="full" width="24" height="24" viewBox="0 0 24.00 24.00" xml:space="preserve"><path fill="#000" fill-opacity="1" stroke-width="1.333" stroke-linejoin="miter" d="M6.18 15.64c1.204 0 2.18.976 2.18 2.18 0 1.204-.976 2.18-2.18 2.18C4.976 20 4 19.024 4 17.82c0-1.204.976-2.18 2.18-2.18zM4 4.44c8.59 0 15.56 6.97 15.56 15.56h-2.83c0-7.03-5.7-12.73-12.73-12.73V4.44zm0 5.66c5.47 0 9.9 4.43 9.9 9.9h-2.83c0-3.9-3.17-7.07-7.07-7.07V10.1z"/></svg>

﻿<?xml version="1.0" encoding="utf-8"?>
<!DOCTYPE svg PUBLIC "-//W3C//DTD SVG 1.1//EN" "http://www.w3.org/Graphics/SVG/1.1/DTD/svg11.dtd">
<svg xmlns="http://www.w3.org/2000/svg" xmlns:xlink="http://www.w3.org/1999/xlink" version="1.1" baseProfile="full" width="24" height="24" viewBox="0 0 24.00 24.00" enable-background="new 0 0 24.00 24.00" xml:space="preserve">
	<path fill="#000000" fill-opacity="1" stroke-width="1.33333" stroke-linejoin="miter" d="M 6.18,15.64C 7.38398,15.64 8.36,16.616 8.36,17.82C 8.36,19.024 7.38398,20 6.18,20C 4.97602,20 4,19.024 4,17.82C 4,16.616 4.97602,15.64 6.18,15.64 Z M 4,4.44C 12.59,4.44 19.56,11.41 19.56,20L 16.73,20C 16.73,12.97 11.03,7.27 4,7.27L 4,4.44 Z M 4,10.1C 9.47,10.1 13.9,14.53 13.9,20L 11.07,20C 11.07,16.1 7.9,12.93 4,12.93L 4,10.1 Z "/>
</svg>
